flaticon/gastronomy/oil.svg

<svg xmlns="http://www.w3.org/2000/svg" width="32" height="32" viewBox="0 0 24 24">
    <path d="M23.492188 12C23.246094 12 23.050781 12.199219 23.050781 12.445312L23.050781 14.21875C23.050781 14.460938 23.246094 14.660156 23.492188 14.660156 23.738281 14.660156 23.9375 14.460938 23.9375 14.21875L23.9375 12.445312C23.9375 12.199219 23.738281 12 23.492188 12zM23.492188 15.546875C23.246094 15.546875 23.050781 15.746094 23.050781 15.992188L23.050781 16.875C23.050781 17.121094 23.246094 17.320312 23.492188 17.320312 23.738281 17.320312 23.9375 17.121094 23.9375 16.875L23.9375 15.992188C23.9375 15.746094 23.738281 15.546875 23.492188 15.546875zM23.492188 18.207031C23.246094 18.207031 23.050781 18.40625 23.050781 18.648438L23.050781 19.09375C23.050781 19.339844 23.246094 19.535156 23.492188 19.535156 23.738281 19.535156 23.9375 19.339844 23.9375 19.09375L23.9375 18.648438C23.9375 18.40625 23.738281 18.207031 23.492188 18.207031zM23.179688 20.554688C23.09375 20.632812 23.050781 20.75 23.050781 20.863281 23.050781 20.980469 23.09375 21.09375 23.179688 21.179688 23.261719 21.261719 23.378906 21.308594 23.492188 21.308594 23.609375 21.308594 23.722656 21.261719 23.808594 21.179688 23.886719 21.09375 23.9375 20.984375 23.9375 20.863281 23.9375 20.75 23.886719 20.632812 23.808594 20.554688 23.644531 20.390625 23.351562 20.386719 23.179688 20.554688zM9.113281 18.773438C7.644531 20.242188 5.253906 20.242188 3.785156 18.773438 3.609375 18.601562 3.328125 18.601562 3.15625 18.773438 2.984375 18.949219 2.984375 19.226562 3.15625 19.402344 4.035156 20.28125 5.203125 20.765625 6.449219 20.765625 7.691406 20.765625 8.859375 20.28125 9.738281 19.402344 9.910156 19.226562 9.910156 18.949219 9.738281 18.773438 9.566406 18.601562 9.285156 18.601562 9.113281 18.773438zM9.113281 18.773438"/>
    <path d="M 16.578125 2.105469 C 14.601562 0.128906 11.417969 -0.0664062 9.332031 1.660156 C 8.160156 2.632812 7.476562 4 7.40625 5.515625 C 7.335938 7.007812 7.898438 8.472656 8.953125 9.527344 L 9.035156 9.609375 C 6.472656 8.859375 3.675781 9.609375 1.8125 11.667969 C -0.609375 14.34375 -0.601562 18.523438 1.824219 21.191406 C 3.144531 22.644531 4.949219 23.46875 6.90625 23.511719 C 6.964844 23.515625 7.023438 23.515625 7.078125 23.515625 C 8.972656 23.515625 10.746094 22.78125 12.089844 21.4375 C 14.253906 19.273438 14.773438 15.941406 13.402344 13.230469 L 15.875 10.757812 C 17.578125 9.054688 20.34375 9.03125 22.070312 10.730469 L 22.429688 11.097656 L 24 9.527344 Z M 22.421875 9.851562 C 20.363281 8.066406 17.214844 8.164062 15.246094 10.132812 L 12.304688 13.074219 L 12.46875 13.367188 C 13.839844 15.789062 13.425781 18.847656 11.464844 20.8125 C 10.253906 22.023438 8.648438 22.671875 6.929688 22.628906 C 5.21875 22.585938 3.636719 21.867188 2.480469 20.59375 C 0.355469 18.261719 0.351562 14.601562 2.46875 12.265625 C 3.6875 10.921875 5.359375 10.210938 7.0625 10.210938 C 8.105469 10.210938 9.160156 10.480469 10.128906 11.027344 L 10.421875 11.195312 L 11.152344 10.46875 L 9.582031 8.902344 C 8.703125 8.023438 8.234375 6.804688 8.292969 5.558594 C 8.351562 4.292969 8.921875 3.152344 9.898438 2.34375 C 11.636719 0.90625 14.296875 1.078125 15.953125 2.734375 L 22.746094 9.527344 Z M 22.421875 9.851562"/>
    <path d="M 15.300781 3.335938 C 14 2.035156 11.960938 1.871094 10.558594 2.953125 C 9.746094 3.578125 9.242188 4.523438 9.179688 5.539062 C 9.113281 6.558594 9.488281 7.554688 10.210938 8.273438 L 11.898438 9.964844 C 12.039062 10.105469 12.222656 10.171875 12.402344 10.171875 C 12.585938 10.171875 12.765625 10.105469 12.90625 9.964844 L 16.914062 5.957031 C 17.046875 5.824219 17.125 5.644531 17.125 5.453125 C 17.125 5.261719 17.046875 5.082031 16.914062 4.949219 Z M 12.402344 9.214844 L 10.835938 7.648438 C 10.296875 7.109375 10.015625 6.359375 10.0625 5.59375 C 10.113281 4.820312 10.480469 4.132812 11.101562 3.652344 C 11.5625 3.296875 12.117188 3.125 12.675781 3.125 C 13.390625 3.125 14.121094 3.410156 14.671875 3.960938 L 16.164062 5.453125 Z M 12.402344 9.214844"/>
</svg>

<svg xmlns="http://www.w3.org/2000/svg" width="32" height="32" viewBox="0 0 24 24">
    <path d="M23.492 12c-.246 0-.441.2-.441.445v1.774a.444.444 0 0 0 .887 0v-1.774c0-.246-.2-.445-.446-.445zm0 0M23.492 15.547c-.246 0-.441.2-.441.445v.883c0 .246.195.445.441.445s.445-.199.445-.445v-.883c0-.246-.199-.445-.445-.445zm0 0M23.492 18.207a.44.44 0 0 0-.441.441v.446c0 .246.195.441.441.441a.442.442 0 0 0 .445-.441v-.446c0-.242-.199-.441-.445-.441zm0 0M23.18 20.555a.419.419 0 0 0-.13.308.443.443 0 1 0 .759-.308.46.46 0 0 0-.63 0zm0 0M9.113 18.773a3.772 3.772 0 0 1-5.328 0 .448.448 0 0 0-.629 0 .448.448 0 0 0 0 .63 4.624 4.624 0 0 0 3.293 1.363c1.242 0 2.41-.485 3.29-1.364a.443.443 0 1 0-.625-.629zm0 0"/>
    <path d="M16.578 2.105C14.602.13 11.418-.066 9.332 1.66a5.271 5.271 0 0 0-1.926 3.856 5.331 5.331 0 0 0 1.547 4.011l.082.082c-2.562-.75-5.36 0-7.223 2.059-2.421 2.676-2.414 6.855.012 9.523a7.014 7.014 0 0 0 5.082 2.32c.059.005.117.005.172.005a7.029 7.029 0 0 0 5.012-2.078 7.108 7.108 0 0 0 1.312-8.208l2.473-2.472a4.398 4.398 0 0 1 6.195-.028l.36.368L24 9.528zm5.844 7.747c-2.059-1.786-5.207-1.688-7.176.28l-2.941 2.942.164.293a6.224 6.224 0 0 1-1.004 7.445A6.134 6.134 0 0 1 6.93 22.63a6.165 6.165 0 0 1-4.45-2.035C.355 18.262.352 14.602 2.47 12.266a6.192 6.192 0 0 1 4.594-2.055 6.23 6.23 0 0 1 3.066.816l.293.168.73-.726-1.57-1.567A4.44 4.44 0 0 1 8.293 5.56a4.39 4.39 0 0 1 1.605-3.215c1.739-1.438 4.399-1.266 6.055.39l6.793 6.793zm0 0"/>
    <path d="M15.3 3.336c-1.3-1.3-3.34-1.465-4.741-.383a3.544 3.544 0 0 0-1.38 2.586 3.53 3.53 0 0 0 1.032 2.734l1.687 1.692a.71.71 0 0 0 .504.207.703.703 0 0 0 .504-.207l4.008-4.008a.713.713 0 0 0 .211-.504.713.713 0 0 0-.21-.504zm-2.898 5.879l-1.566-1.567c-.54-.539-.82-1.289-.774-2.054.051-.774.418-1.461 1.04-1.942a2.565 2.565 0 0 1 1.574-.527c.715 0 1.445.285 1.996.836l1.492 1.492zm0 0"/>
</svg>
